X:128
T:Jenny picking cockles
R:Reel
O:Ireland
B:O'Neill's 1347
B:Krassen O'Neill's p123
S:O'Neill's 1347
B:Roche 1 n180
Z:Transcription:Trish O'Neil, minor arr.,chords:Mike Long
M:C|
L:1/8
K:G
"D"Addc AGEF|"C"GEcE dEcE|"D"Addc AGEF|"C"GEcE "D"EDD2|\
"D"Addc AGEF|
"C"GE-~E2 c2cd|\
"Am"edcA AGEF|"C"GEcE {G}"D"EDD2|]\
"D"f2fd "C"e2ed|"C"cAAB cdeg|
"D"f2fd "Am"e2ed|"C"eage "D"edd2|\
"D"f2fd "C"e2ed|"C"cAAB c3d|"(Am)"edcA AGEF|"C"GEcE {G}"(D)"EDD2|]
